ufans-frontend-package/public/assets/images/feed-story/sent-tip.svg

<svg width="95" height="123" viewBox="0 0 95 123" fill="none" xmlns="http://www.w3.org/2000/svg">
<g clip-path="url(#clip0_1343_23)">
<path fill-rule="evenodd" clip-rule="evenodd" d="M38.1402 21.1517C36.2402 15.5517 34.5402 9.90173 33.0902 4.15173C38.4702 -1.74827 59.2402 -0.96827 65.2202 4.06173L59.6902 17.2117C62.6702 13.3017 63.6702 11.7017 65.4402 9.52173C66.1902 10.0117 66.8902 10.5617 67.5502 11.1617C69.1202 12.5817 70.5302 14.1617 70.8102 16.3517C70.9902 17.7717 70.5902 19.2217 69.3202 20.7017L56.6302 35.4817C55.0002 35.2117 53.4002 34.8217 51.8502 34.2717C52.5702 32.5817 53.4402 30.7117 54.1602 29.0217L49.5402 34.0017C44.7302 32.9817 40.8502 33.5917 37.2502 35.5017L24.3702 20.0517C23.6102 19.1317 23.2602 18.2117 23.2602 17.2917C23.2702 13.5617 28.8302 10.3317 31.7602 9.11173L38.1402 21.1517ZM54.6402 49.0617L52.1302 37.5717C62.8902 39.5717 80.1402 61.4617 85.7102 71.4117C88.5502 76.4917 91.0502 82.0917 93.0902 88.3417C97.1502 103.482 93.2402 117.642 76.8202 120.942C66.5302 123.012 47.3402 123.152 36.5202 122.592C24.8902 121.992 6.88021 122.012 2.18021 110.062C-5.40979 90.7817 8.50022 67.8117 21.1802 53.7517C22.8502 51.9017 24.5702 50.1817 26.3602 48.5817C30.9702 44.5217 35.9502 39.7117 41.8802 37.7017L36.1402 48.3817L44.4702 37.3417H48.8602L54.6402 49.0617ZM49.2902 58.4917V60.5217C51.4402 60.7517 53.2902 61.1917 54.8302 61.8517C56.3702 62.5217 57.7102 63.5217 58.8602 64.8717C59.7702 65.9017 60.4702 66.9617 60.9602 68.0417C61.4502 69.1317 61.7002 70.1217 61.7002 71.0317C61.7002 72.0417 61.3302 72.9117 60.6002 73.6417C59.8602 74.3717 58.9702 74.7417 57.9202 74.7417C55.9402 74.7417 54.6602 73.6717 54.0802 71.5417C53.4102 69.0317 51.8202 67.3517 49.2802 66.5317V79.0817C51.7702 79.7617 53.7702 80.3917 55.2402 80.9517C56.7202 81.5117 58.0502 82.3217 59.2102 83.3917C60.4602 84.4917 61.4202 85.8217 62.1002 87.3517C62.7702 88.8917 63.1102 90.5717 63.1102 92.4017C63.1102 94.6917 62.5802 96.8417 61.4902 98.8317C60.4102 100.842 58.8202 102.462 56.7302 103.742C54.6302 105.012 52.1502 105.762 49.2702 105.992V108.042C49.2702 109.222 49.1502 110.092 48.9202 110.632C48.6902 111.172 48.1902 111.442 47.4002 111.442C46.6802 111.442 46.1702 111.222 45.8802 110.782C45.5902 110.342 45.4502 109.652 45.4502 108.722V106.042C43.1002 105.782 41.0402 105.232 39.2802 104.382C37.5202 103.542 36.0502 102.492 34.8702 101.232C33.7002 99.9617 32.8202 98.6617 32.2702 97.3117C31.7002 95.9517 31.4302 94.6117 31.4302 93.3117C31.4302 92.3517 31.8002 91.4817 32.5602 90.7117C33.3102 89.9417 34.2502 89.5517 35.3702 89.5517C36.2802 89.5517 37.0402 89.7617 37.6702 90.1817C38.2902 90.6017 38.7202 91.2017 38.9702 91.9617C39.5102 93.6117 39.9802 94.8717 40.3802 95.7517C40.7902 96.6217 41.4002 97.4317 42.2102 98.1517C43.0202 98.8717 44.1002 99.4317 45.4502 99.8117V85.7917C42.7502 85.0417 40.5102 84.2217 38.7002 83.3017C36.8902 82.3817 35.4202 81.0917 34.3002 79.4017C33.1802 77.7117 32.6102 75.5417 32.6102 72.8917C32.6102 69.4317 33.7102 66.5917 35.9102 64.3917C38.1102 62.1817 41.2902 60.8917 45.4502 60.5317V58.5617C45.4502 56.8717 46.0902 56.0317 47.3502 56.0317C48.6502 56.0217 49.2902 56.8417 49.2902 58.4917ZM45.4602 77.9517V66.4017C43.7702 66.9017 42.4502 67.5617 41.5102 68.3917C40.5602 69.2117 40.0902 70.4717 40.0902 72.1417C40.0902 73.7217 40.5302 74.9317 41.4202 75.7417C42.3002 76.5517 43.6502 77.2917 45.4602 77.9517ZM49.2902 86.9017V100.122C51.3202 99.7217 52.8802 98.9117 53.9902 97.6817C55.0902 96.4417 55.6502 95.0217 55.6502 93.3917C55.6502 91.6417 55.1102 90.2917 54.0302 89.3317C52.9602 88.3717 51.3802 87.5617 49.2902 86.9017Z" fill="#6661E7"/>
</g>
<defs>
<clipPath id="clip0_1343_23">
<rect width="94.56" height="122.88" fill="white"/>
</clipPath>
</defs>
</svg>

<svg xmlns="http://www.w3.org/2000/svg" xmlns:xlink="http://www.w3.org/1999/xlink" width="94.56" height="122.88" viewBox="0 0 94.56 122.88">
  <defs>
    <clipPath id="clip-path">
      <rect id="Rectangle_1" data-name="Rectangle 1" width="94.56" height="122.88" fill="#e44499"/>
    </clipPath>
  </defs>
  <g id="sent-tip" clip-path="url(#clip-path)">
    <path id="Path_1" data-name="Path 1" d="M38.14,21.152c-1.9-5.6-3.6-11.25-5.05-17,5.38-5.9,26.15-5.12,32.13-.09l-5.53,13.15c2.98-3.91,3.98-5.51,5.75-7.69a16.779,16.779,0,0,1,2.11,1.64c1.57,1.42,2.98,3,3.26,5.19a5.43,5.43,0,0,1-1.49,4.35L56.63,35.482a27.9,27.9,0,0,1-4.78-1.21c.72-1.69,1.59-3.56,2.31-5.25L49.54,34a17.258,17.258,0,0,0-12.29,1.5L24.37,20.052a4.3,4.3,0,0,1-1.11-2.76c.01-3.73,5.57-6.96,8.5-8.18Zm16.5,27.91-2.51-11.49c10.76,2,28.01,23.89,33.58,33.84a94.814,94.814,0,0,1,7.38,16.93c4.06,15.14.15,29.3-16.27,32.6-10.29,2.07-29.48,2.21-40.3,1.65-11.63-.6-29.64-.58-34.34-12.53-7.59-19.28,6.32-42.25,19-56.31a68.259,68.259,0,0,1,5.18-5.17c4.61-4.06,9.59-8.87,15.52-10.88l-5.74,10.68,8.33-11.04h4.39Zm-5.35,9.43v2.03a19.329,19.329,0,0,1,5.54,1.33,11.009,11.009,0,0,1,4.03,3.02,12.812,12.812,0,0,1,2.1,3.17,7.359,7.359,0,0,1,.74,2.99,3.568,3.568,0,0,1-1.1,2.61,3.676,3.676,0,0,1-2.68,1.1q-2.97,0-3.84-3.2a6.841,6.841,0,0,0-4.8-5.01v12.55c2.49.68,4.49,1.31,5.96,1.87a12.135,12.135,0,0,1,3.97,2.44,11.355,11.355,0,0,1,2.89,3.96,12.512,12.512,0,0,1,1.01,5.05,13.179,13.179,0,0,1-1.62,6.43,12.865,12.865,0,0,1-4.76,4.91,16.775,16.775,0,0,1-7.46,2.25v2.05a7.1,7.1,0,0,1-.35,2.59,1.463,1.463,0,0,1-1.52.81,1.686,1.686,0,0,1-1.52-.66,3.833,3.833,0,0,1-.43-2.06v-2.68a18.912,18.912,0,0,1-6.17-1.66,14.534,14.534,0,0,1-4.41-3.15,13.235,13.235,0,0,1-2.6-3.92,10.3,10.3,0,0,1-.84-4,3.608,3.608,0,0,1,1.13-2.6,3.771,3.771,0,0,1,2.81-1.16,4.037,4.037,0,0,1,2.3.63,3.336,3.336,0,0,1,1.3,1.78,38.925,38.925,0,0,0,1.41,3.79,7.493,7.493,0,0,0,1.83,2.4,8.117,8.117,0,0,0,3.24,1.66V85.792A36.753,36.753,0,0,1,38.7,83.3a11.339,11.339,0,0,1-4.4-3.9,11.569,11.569,0,0,1-1.69-6.51,11.515,11.515,0,0,1,3.3-8.5q3.3-3.315,9.54-3.86V58.56c0-1.69.64-2.53,1.9-2.53C48.65,56.022,49.29,56.842,49.29,58.492Zm-3.83,19.46V66.4a10.355,10.355,0,0,0-3.95,1.99,4.7,4.7,0,0,0-1.42,3.75,4.636,4.636,0,0,0,1.33,3.6,12.163,12.163,0,0,0,4.04,2.212Zm3.83,8.95v13.22a8.246,8.246,0,0,0,4.7-2.44,6.264,6.264,0,0,0,1.66-4.29,5.144,5.144,0,0,0-1.62-4.06A12.9,12.9,0,0,0,49.29,86.9Z" fill="#e44499" fill-rule="evenodd"/>
  </g>
</svg>
